static/logos/puma-wordmark-white.svg

<svg width="120" height="64" viewBox="0 0 120 64" fill="none" xmlns="http://www.w3.org/2000/svg">
<g clip-path="url(#clip0_1204_235)">
<path d="M64.6498 2.89498C64.2604 2.95504 63.8861 4.38886 63.1335 5.13581C62.5831 5.67489 61.8961 5.64116 61.5311 6.30762C61.3926 6.5566 61.4375 6.9816 61.2803 7.38967C60.9733 8.20581 59.8913 8.27877 59.8913 9.16801C59.8876 10.1283 60.7936 10.3117 61.5779 10.9931C62.1901 11.5416 62.25 11.9197 62.9912 12.1855C63.624 12.4009 64.5656 11.6969 65.4135 11.9497C66.11 12.1575 66.7763 12.3072 66.9336 13.0223C67.072 13.6812 66.9242 14.7032 66.08 14.5854C65.7954 14.5536 64.5618 14.138 63.0456 14.2989C61.2166 14.5068 59.1293 15.1038 58.9254 17.1425C58.813 18.2825 60.2226 19.6266 61.5836 19.3533C62.5251 19.1678 62.0796 18.058 62.5925 17.5188C63.2645 16.8281 67.072 19.9298 70.6119 19.9298C72.102 19.9298 73.2102 19.5536 74.311 18.4005C74.4138 18.3125 74.5393 18.1234 74.6984 18.1121C74.8482 18.1234 75.1102 18.2712 75.1964 18.3349C78.0474 20.6261 80.2019 25.2219 90.6793 25.2761C92.1525 25.2835 93.8315 25.9875 95.2018 27.2379C96.4243 28.3686 97.1394 30.1262 97.8338 31.9102C98.8821 34.5872 100.762 37.1911 103.611 40.0888C103.766 40.2442 106.112 42.0675 106.299 42.2042C106.329 42.2228 106.501 42.6347 106.441 42.8649C106.372 44.6021 106.119 49.6544 109.885 49.8828C110.806 49.9296 110.565 49.2819 110.565 48.8364C110.563 47.9565 110.402 47.0823 110.866 46.182C111.501 44.9428 109.52 44.3718 109.578 41.693C109.62 39.6957 107.942 40.0363 107.091 38.5145C106.6 37.6328 106.164 37.1649 106.196 36.0865C106.387 30.0178 104.904 26.0305 104.165 25.0515C103.588 24.3121 103.111 24.0182 103.639 23.6756C106.782 21.5996 107.495 19.6677 107.495 19.6677C109.166 15.7385 110.67 12.1499 112.742 10.5701C113.159 10.2443 114.23 9.44508 114.887 9.13052C116.821 8.21885 117.839 7.66673 118.401 7.12C119.29 6.25333 119.992 4.44691 119.14 3.35182C118.081 2.00023 116.248 3.07288 115.44 3.55203C109.661 6.9816 108.809 13.0316 106.808 16.506C105.211 19.282 102.615 21.3207 100.294 21.4873C98.5526 21.6164 96.677 21.2645 94.8088 20.4446C90.2656 18.4529 87.7795 15.8808 87.1937 15.426C85.9731 14.4844 76.4973 5.18257 68.8204 4.80258C68.8204 4.80258 67.8677 2.89511 67.628 2.86327C67.0664 2.79205 66.4918 4.00323 66.08 4.14378C65.6925 4.27277 65.0411 2.83129 64.6498 2.89498ZM30.8537 58.4115C30.131 58.3945 29.5171 57.8012 29.5171 57.0674L29.519 33.1214H21.6269V59.5177C21.6269 60.8112 22.675 61.8671 23.9611 61.8671H37.7555C39.0508 61.8671 40.0861 60.8112 40.0861 59.5177V33.1214H32.2015L32.194 57.0674C32.194 57.8012 31.5799 58.3945 30.8537 58.4115ZM57.278 33.1214H45.3331C43.9199 33.1214 42.7686 34.2708 42.7686 35.6991V61.867H50.668V37.8632C50.6737 37.1275 51.2689 36.5453 52.0028 36.5453C52.7404 36.5453 53.3318 37.1144 53.3486 37.8426V61.8671H61.2165V37.8424C61.2259 37.1142 61.8174 36.5452 62.553 36.5452C63.2832 36.5452 63.8859 37.1274 63.8916 37.8631V61.8671H71.7911V35.6991C71.7911 34.2708 70.638 33.1214 69.2247 33.1214H57.278ZM11.0652 37.9136C11.0709 37.1142 10.4195 36.5452 9.72869 36.5452H8.38839V51.0846H9.72869C10.4251 51.0846 11.071 50.5305 11.0652 49.735V37.9136ZM16.361 54.6431H8.38839V61.8671H0.5V33.1214H16.4117C17.8361 33.1214 18.948 34.2783 18.948 35.7104V52.0543C18.948 53.4883 17.7931 54.6431 16.361 54.6431ZM98.8615 55.4387C97.276 55.4387 95.945 56.809 95.945 58.4695C95.945 60.1355 97.276 61.4945 98.9121 61.4945C100.535 61.4945 101.849 60.1355 101.849 58.4695C101.849 56.8052 100.535 55.4387 98.9119 55.4387H98.8615ZM102.414 58.4601C102.414 60.4124 100.849 62 98.9121 62C96.9539 62 95.3816 60.4239 95.3816 58.4601C95.3816 56.5338 96.9539 54.924 98.854 54.924C100.849 54.924 102.414 56.4853 102.414 58.4601Z" fill="white"/>
<path d="M98.5471 58.2351C99.0956 58.2351 99.3839 58.0404 99.3839 57.6512C99.3839 57.3048 99.105 57.127 98.5714 57.127H98.4142V58.2351H98.5471ZM100.567 60.5077H99.6254L98.4142 58.8959V60.5077H97.6448V56.4325H98.4536C99.5524 56.4325 100.136 56.8481 100.136 57.6418C100.136 58.1714 99.792 58.6415 99.3108 58.7817L99.2547 58.8024L100.567 60.5077ZM85.0355 51.0899V37.8535C85.0166 37.1215 84.427 36.5599 83.6914 36.5599C82.9631 36.5599 82.3603 37.1439 82.3548 37.874V51.0899H85.0355ZM85.0355 61.8668V54.6504H82.3548V61.8668H74.4702V35.6988C74.4702 34.2705 75.6213 33.1211 77.0347 33.1211H90.3554C91.7726 33.1211 92.9238 34.2705 92.9238 35.6988V61.8667L85.0355 61.8668Z" fill="white"/>
</g>
<defs>
<clipPath id="clip0_1204_235">
<rect width="119.492" height="64" fill="white" transform="translate(0.5)"/>
</clipPath>
</defs>
</svg>

<svg xmlns="http://www.w3.org/2000/svg" width="120" height="64" fill="none"><g fill="#fff" clip-path="url(#a)"><path d="M64.65 2.895c-.39.06-.764 1.494-1.517 2.24-.55.54-1.237.506-1.602 1.173-.138.249-.093.674-.25 1.082-.308.816-1.39.889-1.39 1.778-.003.96.903 1.144 1.687 1.825.612.549.672.927 1.413 1.192.633.216 1.575-.488 2.422-.235.697.208 1.363.357 1.52 1.072.139.66-.009 1.681-.853 1.563-.285-.031-1.518-.447-3.034-.286-1.83.208-3.917.805-4.12 2.843-.113 1.14 1.297 2.485 2.658 2.211.941-.185.496-1.295 1.008-1.834.672-.69 4.48 2.41 8.02 2.41 1.49 0 2.598-.375 3.699-1.528.103-.088.228-.278.387-.289.15.011.412.16.498.223 2.851 2.291 5.006 6.887 15.483 6.941 1.474.008 3.153.712 4.523 1.962 1.222 1.13 1.937 2.888 2.632 4.672 1.048 2.677 2.928 5.281 5.777 8.179.155.155 2.501 1.979 2.688 2.115.03.019.202.43.142.66-.069 1.738-.322 6.79 3.444 7.019.921.047.68-.601.68-1.047-.002-.88-.163-1.754.301-2.654.635-1.24-1.346-1.81-1.288-4.489.042-1.997-1.636-1.657-2.487-3.178-.491-.882-.927-1.35-.895-2.428.191-6.07-1.292-10.057-2.031-11.036-.577-.739-1.054-1.033-.526-1.375 3.143-2.076 3.856-4.008 3.856-4.008 1.671-3.93 3.175-7.518 5.247-9.098.417-.326 1.488-1.125 2.145-1.44 1.934-.911 2.952-1.463 3.514-2.01.889-.867 1.591-2.673.739-3.768-1.059-1.352-2.892-.28-3.7.2-5.779 3.43-6.631 9.48-8.632 12.954-1.597 2.776-4.193 4.815-6.514 4.981-1.741.13-3.617-.222-5.485-1.042-4.543-1.992-7.03-4.564-7.615-5.019-1.22-.942-10.697-10.243-18.374-10.623 0 0-.952-1.908-1.192-1.94-.562-.07-1.136 1.14-1.548 1.28-.388.13-1.039-1.312-1.43-1.248M30.854 58.412c-.723-.017-1.337-.61-1.337-1.345l.002-23.946h-7.892v26.397a2.346 2.346 0 0 0 2.334 2.35h13.795a2.337 2.337 0 0 0 2.33-2.35V33.12h-7.884l-.008 23.946c0 .734-.614 1.328-1.34 1.344m26.424-25.29H45.333a2.57 2.57 0 0 0-2.564 2.577v26.168h7.899V37.863c.006-.736.6-1.318 1.335-1.318.737 0 1.329.57 1.346 1.298v24.024h7.868V37.842c.009-.728.6-1.297 1.336-1.297.73 0 1.333.582 1.339 1.318v24.004h7.9V35.7a2.57 2.57 0 0 0-2.567-2.578zm-46.213 4.792a1.35 1.35 0 0 0-1.336-1.369h-1.34v14.54h1.34c.696 0 1.342-.554 1.336-1.35zm5.296 16.73H8.388v7.223H.5V33.121h15.912c1.424 0 2.536 1.157 2.536 2.59v16.343a2.583 2.583 0 0 1-2.587 2.59m82.5.795c-1.585 0-2.916 1.37-2.916 3.03 0 1.666 1.331 3.026 2.967 3.026 1.623 0 2.937-1.36 2.937-3.026 0-1.664-1.314-3.03-2.937-3.03zm3.553 3.021c0 1.952-1.565 3.54-3.502 3.54a3.524 3.524 0 0 1-3.53-3.54c0-1.926 1.572-3.536 3.472-3.536 1.995 0 3.56 1.561 3.56 3.536"/><path d="M98.547 58.235c.549 0 .837-.195.837-.584 0-.346-.279-.524-.813-.524h-.157v1.108zm2.02 2.273h-.942l-1.21-1.612v1.612h-.77v-4.076h.809c1.098 0 1.682.416 1.682 1.21 0 .53-.344 1-.825 1.14l-.056.02zM85.036 51.09V37.853a1.324 1.324 0 0 0-1.345-1.293c-.728 0-1.33.584-1.336 1.314V51.09zm0 10.777V54.65h-2.681v7.217H74.47V35.699a2.57 2.57 0 0 1 2.565-2.578h13.32a2.57 2.57 0 0 1 2.569 2.578v26.168z"/></g><defs><clipPath id="a"><path fill="#fff" d="M.5 0h119.492v64H.5z"/></clipPath></defs></svg>
